img/ModelS.svg

<svg width="793" height="151" viewBox="0 0 793 151" fill="none" xmlns="http://www.w3.org/2000/svg">
<path opacity="0.1" d="M129.4 149L129.2 56.2L83.2 133H71.6L25.6 57.4V149H0.800001V8.99999H22.2L77.8 101.8L132.4 8.99999H153.8L154 149H129.4ZM237.416 150.4C226.616 150.4 216.882 148.067 208.216 143.4C199.549 138.733 192.749 132.267 187.816 124C183.016 115.6 180.616 106.133 180.616 95.6C180.616 85.0667 183.016 75.6667 187.816 67.4C192.749 59.1333 199.549 52.6667 208.216 48C216.882 43.3333 226.616 41 237.416 41C248.349 41 258.149 43.3333 266.816 48C275.482 52.6667 282.216 59.1333 287.016 67.4C291.949 75.6667 294.416 85.0667 294.416 95.6C294.416 106.133 291.949 115.6 287.016 124C282.216 132.267 275.482 138.733 266.816 143.4C258.149 148.067 248.349 150.4 237.416 150.4ZM237.416 129C246.616 129 254.216 125.933 260.216 119.8C266.216 113.667 269.216 105.6 269.216 95.6C269.216 85.6 266.216 77.5333 260.216 71.4C254.216 65.2667 246.616 62.2 237.416 62.2C228.216 62.2 220.616 65.2667 214.616 71.4C208.749 77.5333 205.816 85.6 205.816 95.6C205.816 105.6 208.749 113.667 214.616 119.8C220.616 125.933 228.216 129 237.416 129ZM422.922 0.599991V149H398.922V135.2C394.789 140.267 389.655 144.067 383.522 146.6C377.522 149.133 370.855 150.4 363.522 150.4C353.255 150.4 343.989 148.133 335.722 143.6C327.589 139.067 321.189 132.667 316.522 124.4C311.855 116 309.522 106.4 309.522 95.6C309.522 84.8 311.855 75.2667 316.522 67C321.189 58.7333 327.589 52.3333 335.722 47.8C343.989 43.2667 353.255 41 363.522 41C370.589 41 377.055 42.2 382.922 44.6C388.789 47 393.789 50.6 397.922 55.4V0.599991H422.922ZM366.522 129C372.522 129 377.922 127.667 382.722 125C387.522 122.2 391.322 118.267 394.122 113.2C396.922 108.133 398.322 102.267 398.322 95.6C398.322 88.9333 396.922 83.0667 394.122 78C391.322 72.9333 387.522 69.0667 382.722 66.4C377.922 63.6 372.522 62.2 366.522 62.2C360.522 62.2 355.122 63.6 350.322 66.4C345.522 69.0667 341.722 72.9333 338.922 78C336.122 83.0667 334.722 88.9333 334.722 95.6C334.722 102.267 336.122 108.133 338.922 113.2C341.722 118.267 345.522 122.2 350.322 125C355.122 127.667 360.522 129 366.522 129ZM556.027 96.2C556.027 97.9333 555.893 100.4 555.627 103.6H471.827C473.293 111.467 477.093 117.733 483.227 122.4C489.493 126.933 497.227 129.2 506.427 129.2C518.16 129.2 527.827 125.333 535.427 117.6L548.827 133C544.027 138.733 537.96 143.067 530.627 146C523.293 148.933 515.027 150.4 505.827 150.4C494.093 150.4 483.76 148.067 474.827 143.4C465.893 138.733 458.96 132.267 454.027 124C449.227 115.6 446.827 106.133 446.827 95.6C446.827 85.2 449.16 75.8667 453.827 67.6C458.627 59.2 465.227 52.6667 473.627 48C482.027 43.3333 491.493 41 502.027 41C512.427 41 521.693 43.3333 529.827 48C538.093 52.5333 544.493 59 549.027 67.4C553.693 75.6667 556.027 85.2667 556.027 96.2ZM502.027 61C494.027 61 487.227 63.4 481.627 68.2C476.16 72.8667 472.827 79.1333 471.627 87H532.227C531.16 79.2667 527.893 73 522.427 68.2C516.96 63.4 510.16 61 502.027 61ZM580.041 0.599991H605.041V149H580.041V0.599991ZM738.927 151C728.127 151 717.66 149.467 707.527 146.4C697.527 143.333 689.593 139.267 683.727 134.2L692.727 114C698.46 118.533 705.46 122.267 713.727 125.2C722.127 128 730.527 129.4 738.927 129.4C749.327 129.4 757.06 127.733 762.127 124.4C767.327 121.067 769.927 116.667 769.927 111.2C769.927 107.2 768.46 103.933 765.527 101.4C762.727 98.7333 759.127 96.6667 754.727 95.2C750.327 93.7333 744.327 92.0667 736.727 90.2C726.06 87.6667 717.393 85.1333 710.727 82.6C704.193 80.0667 698.527 76.1333 693.727 70.8C689.06 65.3333 686.727 58 686.727 48.8C686.727 41.0667 688.793 34.0667 692.927 27.8C697.193 21.4 703.527 16.3333 711.927 12.6C720.46 8.86666 730.86 6.99999 743.127 6.99999C751.66 6.99999 760.06 8.06666 768.327 10.2C776.593 12.3333 783.727 15.4 789.727 19.4L781.527 39.6C775.393 36 768.993 33.2667 762.327 31.4C755.66 29.5333 749.193 28.6 742.927 28.6C732.66 28.6 724.993 30.3333 719.927 33.8C714.993 37.2667 712.527 41.8667 712.527 47.6C712.527 51.6 713.927 54.8667 716.727 57.4C719.66 59.9333 723.327 61.9333 727.727 63.4C732.127 64.8667 738.127 66.5333 745.727 68.4C756.127 70.8 764.66 73.3333 771.327 76C777.993 78.5333 783.66 82.4667 788.327 87.8C793.127 93.1333 795.527 100.333 795.527 109.4C795.527 117.133 793.393 124.133 789.127 130.4C784.993 136.667 778.66 141.667 770.127 145.4C761.593 149.133 751.193 151 738.927 151Z" fill="#E51937"/>
</svg>

<svg width="793" height="151" fill="none" xmlns="http://www.w3.org/2000/svg"><path opacity=".1" d="M129.4 149l-.2-92.8-46 76.8H71.6l-46-75.6V149H.8V9h21.4l55.6 92.8L132.4 9h21.4l.2 140h-24.6zm108.016 1.4c-10.8 0-20.534-2.333-29.2-7-8.667-4.667-15.467-11.133-20.4-19.4-4.8-8.4-7.2-17.867-7.2-28.4 0-10.533 2.4-19.933 7.2-28.2 4.933-8.267 11.733-14.733 20.4-19.4 8.666-4.667 18.4-7 29.2-7 10.933 0 20.733 2.333 29.4 7 8.666 4.667 15.4 11.133 20.2 19.4 4.933 8.267 7.4 17.667 7.4 28.2 0 10.533-2.467 20-7.4 28.4-4.8 8.267-11.534 14.733-20.2 19.4-8.667 4.667-18.467 7-29.4 7zm0-21.4c9.2 0 16.8-3.067 22.8-9.2 6-6.133 9-14.2 9-24.2s-3-18.067-9-24.2c-6-6.133-13.6-9.2-22.8-9.2-9.2 0-16.8 3.067-22.8 9.2-5.867 6.133-8.8 14.2-8.8 24.2s2.933 18.067 8.8 24.2c6 6.133 13.6 9.2 22.8 9.2zM422.922.6V149h-24v-13.8c-4.133 5.067-9.267 8.867-15.4 11.4-6 2.533-12.667 3.8-20 3.8-10.267 0-19.533-2.267-27.8-6.8-8.133-4.533-14.533-10.933-19.2-19.2-4.667-8.4-7-18-7-28.8s2.333-20.333 7-28.6c4.667-8.267 11.067-14.667 19.2-19.2 8.267-4.533 17.533-6.8 27.8-6.8 7.067 0 13.533 1.2 19.4 3.6 5.867 2.4 10.867 6 15 10.8V.6h25zm-56.4 128.4c6 0 11.4-1.333 16.2-4 4.8-2.8 8.6-6.733 11.4-11.8 2.8-5.067 4.2-10.933 4.2-17.6 0-6.667-1.4-12.533-4.2-17.6-2.8-5.067-6.6-8.933-11.4-11.6-4.8-2.8-10.2-4.2-16.2-4.2s-11.4 1.4-16.2 4.2c-4.8 2.667-8.6 6.533-11.4 11.6-2.8 5.067-4.2 10.933-4.2 17.6 0 6.667 1.4 12.533 4.2 17.6 2.8 5.067 6.6 9 11.4 11.8 4.8 2.667 10.2 4 16.2 4zm189.505-32.8c0 1.733-.134 4.2-.4 7.4h-83.8c1.466 7.867 5.266 14.133 11.4 18.8 6.266 4.533 14 6.8 23.2 6.8 11.733 0 21.4-3.867 29-11.6l13.4 15.4c-4.8 5.733-10.867 10.067-18.2 13-7.334 2.933-15.6 4.4-24.8 4.4-11.734 0-22.067-2.333-31-7-8.934-4.667-15.867-11.133-20.8-19.4-4.8-8.4-7.2-17.867-7.2-28.4 0-10.4 2.333-19.733 7-28 4.8-8.4 11.4-14.933 19.8-19.6 8.4-4.667 17.866-7 28.4-7 10.4 0 19.666 2.333 27.8 7 8.266 4.533 14.666 11 19.2 19.4 4.666 8.267 7 17.867 7 28.8zm-54-35.2c-8 0-14.8 2.4-20.4 7.2-5.467 4.667-8.8 10.933-10 18.8h60.6c-1.067-7.733-4.334-14-9.8-18.8-5.467-4.8-12.267-7.2-20.4-7.2zM580.041.6h25V149h-25V.6zM738.927 151c-10.8 0-21.267-1.533-31.4-4.6-10-3.067-17.934-7.133-23.8-12.2l9-20.2c5.733 4.533 12.733 8.267 21 11.2 8.4 2.8 16.8 4.2 25.2 4.2 10.4 0 18.133-1.667 23.2-5 5.2-3.333 7.8-7.733 7.8-13.2 0-4-1.467-7.267-4.4-9.8-2.8-2.667-6.4-4.733-10.8-6.2-4.4-1.467-10.4-3.133-18-5-10.667-2.533-19.334-5.067-26-7.6-6.534-2.533-12.2-6.467-17-11.8-4.667-5.467-7-12.8-7-22 0-7.733 2.066-14.733 6.2-21 4.266-6.4 10.6-11.467 19-15.2 8.533-3.733 18.933-5.6 31.2-5.6 8.533 0 16.933 1.067 25.2 3.2 8.266 2.133 15.4 5.2 21.4 9.2l-8.2 20.2c-6.134-3.6-12.534-6.333-19.2-8.2-6.667-1.867-13.134-2.8-19.4-2.8-10.267 0-17.934 1.733-23 5.2-4.934 3.467-7.4 8.067-7.4 13.8 0 4 1.4 7.267 4.2 9.8 2.933 2.533 6.6 4.533 11 6 4.4 1.467 10.4 3.133 18 5 10.4 2.4 18.933 4.933 25.6 7.6 6.666 2.533 12.333 6.467 17 11.8 4.8 5.333 7.2 12.533 7.2 21.6 0 7.733-2.134 14.733-6.4 21-4.134 6.267-10.467 11.267-19 15-8.534 3.733-18.934 5.6-31.2 5.6z" fill="#E51937"/></svg>
